X:9
T:Trip to Pakistan, A
R:reel
M:4/4
L:1/8
Q:1/4=216
K:EMin
|:"Em"EGBE "Em"~G3B|"D"~A3G "D"FGAF|"Em"EGBE "Em"~G3B|"D"AGFA "Em"BEED:|
|:"Em"EGBE "C"c3d|"Em"BBBG "D"AGFG|"Em"EGBE "C"~c3d|"Em"BAGB "D"A4:|
|:"Bm"FGBF "Em"GBFG|"Em"EFGE "D"FGEF|"D"DFAD "D"FADF|"D"AGFG "Am"E2z2:|
